static/images/icons/sns_instagram-logo.svg

<svg xmlns="http://www.w3.org/2000/svg" width="16" height="16" viewBox="0 0 16 16"><path d="M14.5 0h-13C.675 0 0 .675 0 1.5v13c0 .825.675 1.5 1.5 1.5h13c.825 0 1.5-.675 1.5-1.5v-13c0-.825-.675-1.5-1.5-1.5zM11 2.5c0-.275.225-.5.5-.5h2c.275 0 .5.225.5.5v2c0 .275-.225.5-.5.5h-2a.501.501 0 0 1-.5-.5v-2zM8 5a3.001 3.001 0 0 1 0 6 3.001 3.001 0 0 1 0-6zm6 8.5c0 .275-.225.5-.5.5h-11a.501.501 0 0 1-.5-.5V7h1.1A4.999 4.999 0 0 0 8 13a4.999 4.999 0 0 0 4.9-6H14v6.5z"/></svg>

<?xml version="1.0" encoding="utf-8"?>
<!-- Generator: Adobe Illustrator 16.0.0, SVG Export Plug-In . SVG Version: 6.00 Build 0)  -->
<!DOCTYPE svg PUBLIC "-//W3C//DTD SVG 1.1//EN" "http://www.w3.org/Graphics/SVG/1.1/DTD/svg11.dtd">
<svg version="1.1" id="Layer_1" xmlns="http://www.w3.org/2000/svg" xmlns:xlink="http://www.w3.org/1999/xlink" x="0px" y="0px"
	 width="16px" height="16px" viewBox="0 0 16 16" enable-background="new 0 0 16 16" xml:space="preserve">
<path fill="#FFFFFF" d="M14.5,0h-13C0.675,0,0,0.675,0,1.5v13C0,15.325,0.675,16,1.5,16h13c0.825,0,1.5-0.675,1.5-1.5v-13
	C16,0.675,15.325,0,14.5,0z M11,2.5C11,2.225,11.225,2,11.5,2h2C13.775,2,14,2.225,14,2.5v2C14,4.775,13.775,5,13.5,5h-2
	C11.225,5,11,4.776,11,4.5V2.5z M8,5c1.656,0.043,2.965,1.421,2.922,3.078C10.881,9.674,9.597,10.959,8,11
	c-1.657-0.043-2.965-1.421-2.922-3.078C5.119,6.326,6.403,5.041,8,5z M14,13.5c0,0.275-0.225,0.5-0.5,0.5h-11
	C2.224,14,2,13.775,2,13.5V7h1.1c-0.553,2.705,1.192,5.346,3.896,5.898C7.327,12.967,7.663,13,8,13c2.761,0.001,5-2.236,5.001-4.997
	C13.002,7.666,12.968,7.33,12.9,7H14V13.5z"/>
</svg>
